X:16
T:Haste to the Wedding
M:6/8
L:1/8
K:D
B||"D"~A3 Agf|"G"ede fdB|"D"~A3 AGF|"Em"~G3 "A"EFG|
"D"~A3 Agf|"G"ede fdB|"D"~A3 "G"faf|1"A"ded "D"d B:|2 "A"ded "D"d2 g||:
"D"afa afa|"G"bgb bag|"D"afa afa|"G"~g3 "A"efg|"Bm"a3 "A"f3|"G""^"ede
"D"fdB|
"D"~A3 "G"faf|1"A"ded "D"d2 g:|2 "A"ded "D"d3||
